frontend/manage/src/assets/svg/kakao.svg

<svg fill="none" height="15" viewBox="0 0 16 15" width="16" xmlns="http://www.w3.org/2000/svg"><path d="m8 0c4.418 0 8 2.91 8 6.5s-3.582 6.5-8 6.5c-.424 0-.841-.027-1.247-.079-1.718 1.718-3.77 2.027-5.753 2.072v-.421c1.071-.525 2-1.48 2-2.572-.00016-.15-.01152-.2997-.034-.448-1.809-1.192-2.966-3.012-2.966-5.052 0-3.59 3.582-6.5 8-6.5z" fill="#000"/></svg>

<svg width="16" height="15" viewBox="0 0 16 15" fill="none" xmlns="http://www.w3.org/2000/svg">
<path d="M8 0C12.418 0 16 2.91 16 6.5C16 10.09 12.418 13 8 13C7.576 13 7.159 12.973 6.753 12.921C5.035 14.639 2.983 14.948 1 14.993V14.572C2.071 14.047 3 13.092 3 12C2.99984 11.85 2.98848 11.7003 2.966 11.552C1.157 10.36 0 8.54 0 6.5C0 2.91 3.582 0 8 0Z" fill="black"/>
</svg>
